X: 150
T: the Quart Pot
B: 204 Favourite Country Dances
N: Published by Straight & Skillern, London ca.1775
F: http://imslp.org/wiki/204_Favourite_Country_Dances_(Various) p.75 #150
Z: 2014 John Chambers <jc:trillian.mit.edu>
N: Removed dots from each strain's last note to fix the rhythm. Also the first note in bars 9 & 10.
M: C|
L: 1/8
K: A
% - - - - - - - - - - - - - - - - - - - - - - - - -
|:\
A2Ac ecAc | B2Bd fdBd |\
A2Ac ecAc | gbec {c}B4 :|\
|:\
e2(ef/g/) fdcd | f2(fg/a/) ge^de |\
A2Ac ecAc | BdcB A4 :|
% - - - - - - - - - - - - - - - - - - - - - - - - -
%%begintext align
%% Hands across .| Back again :| Cross
%% over 1 Cu. Right and Left at top :|:
%%endtext

%%sep 1 1 500
%%sep 1 1 500
